!!!COM: Hindemith, Paul
!!!OTL: Klaviermusik, I: Übung in drei Stücken (Piano Music, I: Exercise in Three Pieces), op. 37
!!!OMV: No. 1: Schnelle Viertel, durchaus sehr markiert zu spielen (Fast Quarters, Very Markedly Played)
!!!example: 626
!!!work: Hin-28
**kern	**kern	**dynam
*part1	*part1	*part1
*staff2	*staff1	*
*I"Piano	*	*
*I'Pno.	*	*
*clefF4	*clefG2	*
*k[]	*k[]	*
*C:	*C:	*
*M2/4	*M2/4	*
*MM121	*MM121	*
=14	=14	=14
16DLL	16fKL	p
16C#X	(8c	.
16D	.	.
!	!LO:TX:b:t=cresc.	!
16AAJJ	16c-X^Jk) 16d-X	.
16BBLL	16r	.
16CnJ	16en'LL	.
8AA-XJ	16f'	.
.	([16gJJ	.
=15	=15	=15
16FLL	16gLL]	.
16E	16g-XJJ) 16a-X	.
16F	16r	.
16CJJ	16bn'	.
16DLL	16cc'KL	.
16E-XJ	(8dd	.
8C-XJ	.	.
.	16dd-X^Jk) 16ee-X	.
=16	=16	=16
16ALL	16r	.
16G#X	(16ccKL	.
16A	8ddJ	.
16EJJ	.	.
16F#XLL	16dd-X^) 16ee-X	.
16GnJ	16r	.
8DJ	(16ccLL	.
.	[16ddnJJ	.
=17	=17	=17
16ALL	16ddLL]	.
16G#X	16dd-X^JJ) 16ee-X	.
16A	16r	.
16EJJ	(16cc	.
16F#XLL	[16ddnLL	.
16GnJ	16dd]	.
8DJ	16dd-X^JJ) 16ee-	.
.	16r	.
=18	=18	=18
*M5/16	*M5/16	*
16ALL	(16ccLL	.
16G#X	[16dd	.
16AJJ	16ddJJ]	.
16E	16dd-X^) 16ee-X	.
16r	16r	.
=19	=19	=19
*M3/4	*M3/4	*
8r	(16ff^LL	f
.	16ee	.
(16E-XLL	16ff	.
16D-XJJ	16ccJJ	.
8E-L)	16ffLL	.
.	16bb-X	.
16AA'^L	16aa-X	.
16GG'^JJ	16bb-JJ	.
16FF'^LL	16ggLL	.
16EE'^J	16ff	.
8DD'^J	16gg	.
.	16ee-XJJ	.
=20	=20	=20
*M3/16	*M3/16	*
16r	16cccLL	.
(16AA-XLL	16gg	.
16GG-XJJ	16aanJJ)	.
=21	=21	=21
*M2/4	*M2/4	*
8FF^L)	(16ff^LL	<
.	16ee	.
(16E-XL	16ff	.
16DJJ	16ccJJ	.
8E-L)	16ffLL	.
.	16bb-X	.
16AAn'^L	16aa-X	.
16GG'^JJ	16bb-JJ	.
=22	=22	=22
*M3/8	*M3/8	*
16FF'^LL	16ggLL	.
16EE'^J	16ff	.
8DD'^	16gg	.
.	16ee-X	.
16cL	16ccc	.
16GJJ	16ggJJ)	.
=23	=23	=23
*M2/4	*M2/4	*
*^	*^	*
16ALL	8ryy	16aaLL	4ryy	[ ff
16G#XJJ	.	16gg#XJ	.	.
16r	4A^	(48aa^LL	.	.
.	.	48ccc	.	.
.	.	48bbJJ	.	.
8.AA-XL 8.C 8.F	.	8.aa)	.	.
.	.	.	8ryy	.
8EJ	8r	16ddL	8ee	.
.	.	16ccJJ	.	.
=24	=24	=24	=24	=24
16BBLL	8ryy	16bLL	4ryy	.
16AA#XJJ	.	16a#XJ	.	.
16r	4BB^	(48b^LL	.	.
.	.	48dd	.	.
.	.	48cc#XJJ	.	.
8.CCL 8.GG	.	8.b)	.	>
.	.	.	8ryy	.
8FF#XJ	8r	16eL	8f#X	.
.	.	16dJJ	.	.
*v	*v	*	*	*
*	*v	*v	*
*	*clefF4	*
=25	=25	=25
*M11/16	*M11/16	*
16r	(16c#X^LL	] p
(8CCn	16B#X	.
.	16c#JJ	.
16DDKL	16G#XLL	.
8EE-XJ	16c#	.
.	16f#XJJ	.
16FFKL	16eLL	.
8GGJ	16f#	.
.	16d#XJJ	.
16EE-XLL)	16g#XLL	.
([16CCJJ	16BnJJ)	.
=26	=26	=26
*M13/16	*M13/16	*
16CCLL]	(16c#X^LL	.
16DDJ	16B#X	.
8EE-X	16c#JJ	.
.	16G#XLL	.
16FFk	16c#	.
8GG	16f#XJJ	.
.	16eLL	.
16EE-Xk)	16f#	.
8CC-X 8AA-X	16d#XJJ	.
.	16g#XLL	.
(16BBB-XJk 16GG	16BnJJ	.
8AAA-X 8FF	16c#XLL	.
.	16AJJ	.
=27	=27	=27
*M7/16	*M7/16	*
16BB-XKL	16BnLL	<
8DD-XJ 8GG	16A	.
.	16BJJ	.
16AAnLL	16GLL	[
16FFJJ	16dJJ	>
16GG-XLL	16ALL	.
16DD-XJJ)	16BJJ)	.
=	=	=
*-	*-	*-
!!!system-decoration: {(s1,s2)}
!!!CDT: 1895/11/16-1963/12/28
!!!CBL: Hanau, Germany
!!!CDL: Frankfurt, Germany
!!!CNT: German
!!!AGN: Instrumental; Keyboard
!!!MCN:
!!!MDT: 1925/10/05
!!!MGN:
!!!MLC: Dresden, Germany
!!!MPD: 1925
!!!MPN: Aron, Paul
!!!ODT: 1927
!!!PDT: 1925
!!!excerpt-start-measure: 14
!!!excerpt-end-measure: 25
!!!excerpt-start-time: 0:27
!!!excerpt-end-time: 0:46
!!!EEV: 2020/01/27
!!!ONB: Converted from MusicXML on 2020/01/27
